Simply-Orange-Circles/scalable/apps/gnome-sound-recorder.svg

<?xml version="1.0" encoding="UTF-8" standalone="no"?>
<svg
   xmlns:dc="http://purl.org/dc/elements/1.1/"
   xmlns:cc="http://creativecommons.org/ns#"
   xmlns:rdf="http://www.w3.org/1999/02/22-rdf-syntax-ns#"
   xmlns:svg="http://www.w3.org/2000/svg"
   xmlns="http://www.w3.org/2000/svg"
   xmlns:sodipodi="http://sodipodi.sourceforge.net/DTD/sodipodi-0.dtd"
   xmlns:inkscape="http://www.inkscape.org/namespaces/inkscape"
   width="48"
   height="48"
   viewBox="0 0 12.7 12.7"
   version="1.1"
   id="svg4"
   sodipodi:docname="gnome-sound-recorder.svg"
   inkscape:version="0.92.4 (5da689c313, 2019-01-14)">
  <metadata
     id="metadata10">
    <rdf:RDF>
      <cc:Work
         rdf:about="">
        <dc:format>image/svg+xml</dc:format>
        <dc:type
           rdf:resource="http://purl.org/dc/dcmitype/StillImage" />
        <dc:title></dc:title>
      </cc:Work>
    </rdf:RDF>
  </metadata>
  <defs
     id="defs8" />
  <sodipodi:namedview
     pagecolor="#ffffff"
     bordercolor="#666666"
     borderopacity="1"
     objecttolerance="10"
     gridtolerance="10"
     guidetolerance="10"
     inkscape:pageopacity="0"
     inkscape:pageshadow="2"
     inkscape:window-width="1087"
     inkscape:window-height="480"
     id="namedview6"
     showgrid="false"
     inkscape:zoom="4.9166667"
     inkscape:cx="2.1355932"
     inkscape:cy="24"
     inkscape:window-x="0"
     inkscape:window-y="25"
     inkscape:window-maximized="0"
     inkscape:current-layer="svg4" />
  <path
     d="m 6.344,0.073 a 6.29,6.29 0 0 0 -6.29,6.29 6.29,6.29 0 0 0 6.29,6.288 6.29,6.29 0 0 0 6.29,-6.289 6.29,6.29 0 0 0 -6.29,-6.29 z M 6.326,1.009 A 5.407,5.407 0 0 1 11.733,6.416 5.407,5.407 0 0 1 6.326,11.823 5.407,5.407 0 0 1 0.92,6.416 5.407,5.407 0 0 1 6.326,1.01 Z M 8.248,2.247 A 1.79,1.79 0 0 0 6.771,2.965 C 6.601,3.192 6.647,3.609 6.794,3.851 l 0.923,1.52 C 7.864,5.612 8.215,5.844 8.494,5.798 A 1.787,1.787 0 1 0 8.248,2.248 Z M 5.803,4.257 A 0.45,0.45 0 0 0 5.542,4.37 L 2.055,7.384 A 0.664,0.664 0 0 0 1.912,8.168 l 0.011,0.02 a 0.557,0.557 0 0 0 0.71,0.237 L 4.422,7.609 C 4.679,7.492 4.888,7.586 4.888,7.82 c 0,0.234 0.068,0.424 0.153,0.424 0.084,0 0.152,0.23 0.152,0.512 v 2.196 c 0,0.283 0.116,0.512 0.259,0.512 0.143,0 0.259,-0.229 0.259,-0.512 V 8.756 c 0,-0.283 0.079,-0.512 0.176,-0.512 0.098,0 0.176,-0.229 0.176,-0.512 V 7.372 C 6.063,7.09 6.272,6.766 6.529,6.649 L 6.844,6.505 A 0.442,0.442 0 0 0 7.042,5.855 L 6.195,4.472 A 0.433,0.433 0 0 0 5.893,4.262 0.394,0.394 0 0 0 5.803,4.257 Z"
     id="path2"
     inkscape:connector-curvature="0"
     style="fill:#ff7f2a" />
</svg>

<svg xmlns="http://www.w3.org/2000/svg" width="48" height="48" viewBox="0 0 12.7 12.7"><path fill="#ff7f2a" d="M6.34.07a6.29 6.29 0 0 0-6.29 6.3 6.29 6.29 0 0 0 6.3 6.28 6.29 6.29 0 0 0 6.28-6.29A6.29 6.29 0 0 0 6.34.07zm-.01.94a5.4 5.4 0 0 1 5.4 5.4 5.4 5.4 0 0 1-5.4 5.41 5.4 5.4 0 0 1-5.41-5.4A5.4 5.4 0 0 1 6.32 1zm1.92 1.24a1.79 1.79 0 0 0-1.48.71c-.17.23-.12.65.02.9l.93 1.51c.14.24.5.47.77.43a1.79 1.79 0 1 0-.24-3.55zm-2.45 2a.45.45 0 0 0-.26.12L2.06 7.38a.66.66 0 0 0-.15.79l.01.02a.56.56 0 0 0 .71.24l1.8-.82c.25-.12.46-.02.46.21 0 .23.07.42.15.42.08 0 .15.23.15.52v2.2c0 .28.12.5.26.5s.26-.22.26-.5v-2.2c0-.29.08-.52.18-.52.1 0 .17-.23.17-.5v-.37c0-.28.21-.6.47-.72l.31-.15a.44.44 0 0 0 .2-.65L6.2 4.47a.43.43 0 0 0-.3-.2.4.4 0 0 0-.1-.01z"/></svg>
